X: 35499
T: Ruby's
R: reel
M: 4/4
K: Dmajor
~G3B e2dB|~A3g gfef|gzeg dBGA|AGAB GEE2|
~G3B eBdB|A3g gfef|gzeg dBGA|AGAB Gded|
BGG2 dedB|~A3g gfef|gzeg dBGA|AGAB GEE2|
~G3B ~e3B|~A3g gfef|gzeg dBGA|AG(3ABd e4-|
egfg edBA|BDGB Aded|Bgfg efgz|~f3a bfaf|
Bgfg edBA|BDGB Aded|BGG2 (3Bcd ed|B2AB GEE2|
Ggfg edBA|BDGB Aded|Bgfg efgz|~f3a bfaf|
Bgfg edBA|BDGB Aded|BGG2 (3Bcd ed|B2AB GEE2||

